svgs/duotone/file-spreadsheet.svg

<svg xmlns="http://www.w3.org/2000/svg" viewBox="0 0 384 512"><!--! Font Awesome Pro 6.6.0 by @fontawesome - https://fontawesome.com License - https://fontawesome.com/license (Commercial License) Copyright 2024 Fonticons, Inc. --><defs><style>.fa-secondary{opacity:.4}</style></defs><path class="fa-secondary" d="M0 64C0 28.7 28.7 0 64 0L224 0l0 128c0 17.7 14.3 32 32 32l128 0 0 288c0 35.3-28.7 64-64 64L64 512c-35.3 0-64-28.7-64-64L0 64zM56 256l0 16 0 80 0 64c0 17.7 14.3 32 32 32l64 0 80 0 64 0c17.7 0 32-14.3 32-32l0-64 0-80 0-16c0-17.7-14.3-32-32-32L88 224c-17.7 0-32 14.3-32 32z"/><path class="fa-primary" d="M384 160L224 0l0 128c0 17.7 14.3 32 32 32l128 0zM88 224c-17.7 0-32 14.3-32 32l0 16 0 80 0 64c0 17.7 14.3 32 32 32l64 0 80 0 64 0c17.7 0 32-14.3 32-32l0-64 0-80 0-16c0-17.7-14.3-32-32-32L88 224zm0 112l0-48 48 0 0 48-48 0zm80 0l0-48 48 0 0 48-48 0zm80 0l0-48 48 0 0 48-48 0zm0 32l48 0 0 48-48 0 0-48zm-32 0l0 48-48 0 0-48 48 0zm-80 0l0 48-48 0 0-48 48 0z"/></svg>

<svg xmlns="http://www.w3.org/2000/svg" viewBox="0 0 384 512"><!--! Font Awesome Pro 6.4.0 by @fontawesome - https://fontawesome.com License - https://fontawesome.com/license (Commercial License) Copyright 2023 Fonticons, Inc. --><defs><style>.fa-secondary{opacity:.4}</style></defs><path class="fa-primary" d="M384 160L224 0V128c0 17.7 14.3 32 32 32H384zM88 224c-17.7 0-32 14.3-32 32v16 80 64c0 17.7 14.3 32 32 32h64 80 64c17.7 0 32-14.3 32-32V352 272 256c0-17.7-14.3-32-32-32H88zm0 112V288h48v48H88zm80 0V288h48v48H168zm80 0V288h48v48H248zm0 32h48v48H248V368zm-32 0v48H168V368h48zm-80 0v48H88V368h48z"/><path class="fa-secondary" d="M0 64C0 28.7 28.7 0 64 0H224V128c0 17.7 14.3 32 32 32H384V448c0 35.3-28.7 64-64 64H64c-35.3 0-64-28.7-64-64V64zM88 224c-17.7 0-32 14.3-32 32V416c0 17.7 14.3 32 32 32H296c17.7 0 32-14.3 32-32V256c0-17.7-14.3-32-32-32H88z"/></svg>
